X:261
L:1/8
M:3/8
K:G
 g2 g | f2 f | e2 e | d2 B | c(e/c/)A | B(d/B/)G | A/c/EF | G2 G :: G/A/BB | A/B/cc | BG/A/B/c/ | 
 d2 B | c(e/c/)A | B(d/B/)G | AGF | G2 G :|

